X:50
T: Broadstone (The)
C: John Whelan
Z: B.Black
R: reel
M: 4/4
L: 1/8
K: Am
AB | cABG AGED | EAAG AGED | CAce gedc |\
BGG^F G2 ed |
cABG AGED | EAAG A2 AB | cE (3EDE BE (3EDE |\
edcB A2 :|
AB | cABe edcB | Aaag aged | cAed cBAG |\
EAAG A2 AB |
cege aged | cedc BG G2 | cAag ed (3ded |\
edcB A2 :|
